X:1
T:The Good Old Way
M:2/4
L:1/8
K:G
 E2| B,2 E2|E-F G2| F2 D2|F-G A2| B3- A-|B-^c d2| F3 E|D-E F2| E2 E2|\
 B,2 E2|E-F G2| F2 D2|F-G A2| B3- A-|B-^c d2| F3 E|D-E F2| E2 GA| BB B2|\
 B2 d2| BA AA| A2 GF| GG G2| G2 B2| DD DD| F2 EF|G-E C2| E2 FG|A-F F2|\
 F2G-A| B3- A|B-^c d2| F3 E|D-E F2| E2||
